contributed-vectors/jiotv.svg

<svg xmlns="http://www.w3.org/2000/svg" width="192" height="192" fill="none"><g clip-path="url(#a)"><path fill="#FF837D" d="M96 184c48.601 0 88-39.399 88-88S144.601 8 96 8 8 47.399 8 96s39.399 88 88 88Z"/><path fill="#fff" d="M105.8 128.6H86.2c-2.2 0-3.9-1.8-3.9-3.9 0-2.2 1.8-3.9 3.9-3.9h19.6c2.2 0 3.9 1.8 3.9 3.9 0 2.1-1.8 3.9-3.9 3.9ZM126 63.4H66c-3.6 0-6.5 2.9-6.5 6.5v36.5c0 3.6 2.9 6.5 6.5 6.5h60c3.6 0 6.5-2.9 6.5-6.5V69.9c0-3.6-2.9-6.5-6.5-6.5Zm-21 26.3-12.5 10c-1.3 1-3.2.1-3.2-1.5v-20c0-1.6 1.9-2.6 3.2-1.5l12.5 10c.9.7.9 2.2 0 3Z"/></g><defs><clipPath id="a"><path fill="#fff" d="M0 0h192v192H0z"/></clipPath></defs></svg>

<svg width="192" height="192" viewBox="0 0 192 192" fill="none" xmlns="http://www.w3.org/2000/svg">
<g clip-path="url(#clip0)">
<path d="M96 184C144.601 184 184 144.601 184 96C184 47.3989 144.601 8 96 8C47.3989 8 8 47.3989 8 96C8 144.601 47.3989 184 96 184Z" fill="#FF837D"/>
<path d="M105.8 128.6H86.2C84 128.6 82.3 126.8 82.3 124.7C82.3 122.5 84.1 120.8 86.2 120.8H105.8C108 120.8 109.7 122.6 109.7 124.7C109.7 126.8 107.9 128.6 105.8 128.6Z" fill="white"/>
<path d="M126 63.4H66C62.4 63.4 59.5 66.3 59.5 69.9V106.4C59.5 110 62.4 112.9 66 112.9H126C129.6 112.9 132.5 110 132.5 106.4V69.9C132.5 66.3 129.6 63.4 126 63.4ZM105 89.7L92.5 99.7C91.2 100.7 89.3 99.8 89.3 98.2V78.2C89.3 76.6 91.2 75.6 92.5 76.7L105 86.7C105.9 87.4 105.9 88.9 105 89.7Z" fill="white"/>
</g>
<defs>
<clipPath id="clip0">
<rect width="192" height="192" fill="white"/>
</clipPath>
</defs>
</svg>
